app/dist/common/images/preferred-bank.svg

<svg height="18" viewBox="0 0 18 18" width="18" xmlns="http://www.w3.org/2000/svg" xmlns:xlink="http://www.w3.org/1999/xlink"><linearGradient id="a"><stop offset="0" stop-color="#f3f6f6"/><stop offset=".1" stop-color="#d4dddd"/><stop offset=".2" stop-color="#a1b5b6"/><stop offset=".3" stop-color="#8aa3a4"/><stop offset=".5" stop-color="#fff"/><stop offset=".8" stop-color="#8aa3a4"/><stop offset="1" stop-color="#fff"/></linearGradient><linearGradient id="b" gradientUnits="userSpaceOnUse" x1="4.79" x2="14.38" xlink:href="#a" y1="3.36" y2="11.71"/><linearGradient id="c" gradientUnits="userSpaceOnUse" x1="5.87" x2="13.23" xlink:href="#a" y1="7.77" y2="13.93"/><path d="m0 0h18v18h-18z" fill="#f0f3fa"/><path d="m3 5.34h1.2v-.34h9.6v.34h1.2v5.66h-12z" fill="url(#b)"/><path d="m14.7 8.16h.3v.16h-.3v2.68h-11.4v-2.68h-.3v-.16h.3v-2.16h11.4z" fill="#235b4e"/><path d="m4 10h10v3h-10z" fill="url(#c)"/><path d="m5 7h8v2h-8z" fill="#f0f3fa" opacity=".7"/><path d="m6 11.01h6v1h-6z" fill="#235b4e" opacity=".8"/></svg>

<!-- by TradingView --><svg width="18" height="18" viewBox="0 0 18 18" xmlns="http://www.w3.org/2000/svg"><path fill="#F0F3FA" d="M0 0h18v18H0z"/><path d="M3 5.34h1.2V5h9.6v.34H15V11H3V5.34Z" fill="url(#a4yj3k4bs)"/><path d="M14.7 8.16h.3v.16h-.3V11H3.3V8.32H3v-.16h.3V6h11.4v2.16Z" fill="#235B4E"/><path d="M4 10h10v3H4v-3Z" fill="url(#b4yj3k4bs)"/><path opacity=".7" fill="#F0F3FA" d="M5 7h8v2H5z"/><path opacity=".8" fill="#235B4E" d="M6 11.01h6v1H6z"/><defs><linearGradient id="a4yj3k4bs" x1="4.79" y1="3.36" x2="14.38" y2="11.71" gradientUnits="userSpaceOnUse"><stop stop-color="#F3F6F6"/><stop offset=".1" stop-color="#D4DDDD"/><stop offset=".2" stop-color="#A1B5B6"/><stop offset=".3" stop-color="#8AA3A4"/><stop offset=".5" stop-color="#fff"/><stop offset=".8" stop-color="#8AA3A4"/><stop offset="1" stop-color="#fff"/></linearGradient><linearGradient id="b4yj3k4bs" x1="5.87" y1="7.77" x2="13.23" y2="13.93" gradientUnits="userSpaceOnUse"><stop stop-color="#F3F6F6"/><stop offset=".1" stop-color="#D4DDDD"/><stop offset=".2" stop-color="#A1B5B6"/><stop offset=".3" stop-color="#8AA3A4"/><stop offset=".5" stop-color="#fff"/><stop offset=".8" stop-color="#8AA3A4"/><stop offset="1" stop-color="#fff"/></linearGradient></defs></svg>
